dist/img/icons/car.svg

<svg width="11" height="11" viewBox="0 0 11 11" fill="none" xmlns="http://www.w3.org/2000/svg">
<g clip-path="url(#clip0)">
<path d="M9.5 3.49999H8V1.5H1.00001C0.447493 1.5 0 1.94749 0 2.50001V8.00002H1.00001C1.00001 8.82753 1.6725 9.50002 2.50001 9.50002C3.32752 9.50002 4.00001 8.82753 4.00001 8.00002H7.00001C7.00001 8.82753 7.67251 9.50002 8.50001 9.50002C9.32752 9.50002 10 8.82753 10 8.00002H11V5.50001L9.5 3.49999ZM2.50001 8.75C2.085 8.75 1.75001 8.41501 1.75001 8C1.75001 7.58499 2.085 7.25 2.50001 7.25C2.91502 7.25 3.25001 7.58499 3.25001 8C3.25001 8.41501 2.91499 8.75 2.50001 8.75ZM8.50001 8.75C8.08501 8.75 7.75001 8.41501 7.75001 8C7.75001 7.58499 8.08501 7.25 8.50001 7.25C8.91502 7.25 9.25001 7.58499 9.25001 8C9.25001 8.41501 8.915 8.75 8.50001 8.75ZM8 5.50001V4.25002H9.24999L10.2325 5.50001H8Z" fill="#3E80FE"/>
</g>
<defs>
<clipPath id="clip0">
<rect width="11" height="11" fill="white"/>
</clipPath>
</defs>
</svg>

<svg width="11" height="11" fill="none" xmlns="http://www.w3.org/2000/svg"><g clip-path="url(#clip0)"><path d="M9.5 3.5H8v-2H1a1 1 0 00-1 1V8h1a1.501 1.501 0 003 0h3a1.501 1.501 0 003 0h1V5.5l-1.5-2zm-7 5.25a.749.749 0 110-1.5.749.749 0 110 1.5zm6 0a.749.749 0 110-1.5.749.749 0 110 1.5zM8 5.5V4.25h1.25l.982 1.25H8z" fill="#3E80FE"/></g><defs><clipPath id="clip0"><path fill="#fff" d="M0 0h11v11H0z"/></clipPath></defs></svg>
